src/styles/icons/Dockbar_dictionary.svg

<svg width="24" height="24" fill="current" xmlns="http://www.w3.org/2000/svg"><path d="M7.31 3.49997c-.70963-.03-1.4025.22083-1.92848.69814-.52598.47731-.84269 1.14266-.88152 1.85186V18c.05135.7003.37349 1.353.8981 1.8197.5246.4668 1.21039.7108 1.9119.6803H19.5v-1.7H7.31c-.22543 0-.44163-.0896-.60104-.249S6.46 18.1754 6.46 17.95c0-.2255.08955-.4417.24896-.6011S7.08457 17.1 7.31 17.1H19.5V3.49997H7.31Zm0 1.7h2.81V12.1l1.48-.93 1.34-.86 2.81 1.79V5.19997h1.87V15.4H7.31c-.31675.0011-.63109.0551-.93.16V6.04997c.00381-.11735.03106-.23275.08015-.3394.0491-.10665.11903-.2024.2057-.28161.08666-.07921.1883-.14028.29893-.1796.11063-.03933.228-.05612.34522-.04939Zm4.69 0h1.88v3.64l-.94-.6-.94.6v-3.64Z"/></svg>

<svg width="24" height="24" viewBox="0 0 24 24" fill="current" xmlns="http://www.w3.org/2000/svg">
<path d="M7.31 3.49997C6.60037 3.46997 5.9075 3.7208 5.38152 4.19811C4.85554 4.67542 4.53883 5.34077 4.5 6.04997V18C4.55135 18.7003 4.87349 19.353 5.3981 19.8197C5.9227 20.2865 6.60849 20.5305 7.31 20.5H19.5V18.8H7.31C7.08457 18.8 6.86837 18.7104 6.70896 18.551C6.54955 18.3916 6.46 18.1754 6.46 17.95C6.46 17.7245 6.54955 17.5083 6.70896 17.3489C6.86837 17.1895 7.08457 17.1 7.31 17.1H19.5V3.49997H7.31ZM7.31 5.19997H10.12V12.1L11.6 11.17L12.94 10.31L15.75 12.1V5.19997H17.62V15.4H7.31C6.99325 15.4011 6.67891 15.4551 6.38 15.56V6.04997C6.38381 5.93262 6.41106 5.81722 6.46015 5.71057C6.50925 5.60392 6.57918 5.50817 6.66585 5.42896C6.75251 5.34975 6.85415 5.28868 6.96478 5.24936C7.07541 5.21003 7.19278 5.19324 7.31 5.19997ZM12 5.19997H13.88V8.83997L12.94 8.23997L12 8.83997V5.19997Z" fill="current"/>
</svg>
